X: 1
T:Morning Star
M:2/4
C:
S:Chingford MM
N:
A:Chingford
O:English
R:Reel
%P:A.(AB)$^5$
P:A.(AB)5
L:1/16
K:G
I:speed 400
P:A
|:\
BcBG  E2FG|ABAF D2GA|BcBA E2AF|D2G2 G4:|\
P:B
GABc  d2d2|egfe dcBA|B2Bc d2d2|efge d4|\
GABc  d2d2|egfe dcBA|B2Bc d2d2|efge d4|\
GABc  d2d2|egfe dcBA|B2Bc d2d2|efge d4|\
GABc  d2d2|egfe dBG2|ABcA FGAF|D2G2 G4||
